lib/radiotmp/nrk-media-playlist-add.svg

<svg xmlns="http://www.w3.org/2000/svg" viewBox="0 0 24 24"><path fill="#000" d="M17 4v4h-4v2h4v4h2v-4h4V8h-4V4h-2Z"/><g fill="#000" opacity=".3"><path d="M1 5h10v2H1V5ZM1 11h10v2H1v-2ZM21 17H1v2h20v-2Z"/></g></svg>

<svg width="24" height="24" viewBox="0 0 24 24" fill="none" xmlns="http://www.w3.org/2000/svg">
<path d="M17 4V8H13V10H17V14H19V10H23V8H19V4H17Z" fill="black"/>
<g opacity="0.3">
<path d="M1 5H11V7H1V5Z" fill="black"/>
<path d="M1 11H11V13H6H1V11Z" fill="black"/>
<path d="M21 17H1V19H21V17Z" fill="black"/>
</g>
</svg>
